dist/svg/u1F99A.svg

<?xml version="1.0" encoding="UTF-8"?><svg id="Layer_1" xmlns="http://www.w3.org/2000/svg" viewBox="0 0 40 40"><g><polygon points="20.52343 37.29183 21.07211 37.29183 21.27792 29.49987 20.31763 29.49987 20.52343 37.29183" style="fill:#ec6700;"/><polygon points="19.33645 37.29183 19.88512 37.29183 20.09093 29.49987 19.13064 29.49987 19.33645 37.29183" style="fill:#ec6700;"/><g><path d="M20.36611,17.38408c-.2016,.39951-.77633,.39951-.97794,0-.67531-1.33823-1.81111-4.05473-1.81111-7.18814,0-3.13341,1.1358-5.84992,1.81111-7.18814,.2016-.39951,.77633-.39951,.97794,0,.67531,1.33823,1.81111,4.05473,1.81111,7.18814s-1.1358,5.84992-1.81111,7.18814Z" style="fill:#109494;"/><path d="M21.39187,17.69406c-.32609,.30646-.86615,.10989-.91896-.33447-.17688-1.48849-.31509-4.42964,.7566-7.37408,1.07169-2.94444,3.06809-5.10866,4.16038-6.13521,.32609-.30646,.86615-.10989,.91896,.33447,.17688,1.48849,.31509,4.42964-.7566,7.37408-1.07169,2.94444-3.06809,5.10866-4.16038,6.13521Z" style="fill:#109494;"/><path d="M22.24974,18.33617c-.41124,.17645-.8515-.19298-.74914-.62861,.34288-1.45922,1.21894-4.27026,3.23306-6.6706,2.01412-2.40033,4.63033-3.75122,6.00784-4.34228,.41124-.17645,.8515,.19298,.74914,.62861-.34288,1.45922-1.21894,4.27026-3.23306,6.6706-2.01412,2.40033-4.63033,3.75122-6.00784,4.34228Z" style="fill:#109494;"/><path d="M22.83627,19.23298c-.44679,.02516-.73415-.47257-.48897-.84692,.82128-1.25395,2.60594-3.59583,5.31956-5.16254,2.71361-1.56671,5.63408-1.94133,7.13067-2.0256,.44679-.02516,.73415,.47257,.48897,.84692-.82128,1.25395-2.60594,3.59583-5.31956,5.16254-2.71361,1.56671-5.63408,1.94133-7.13067,2.0256Z" style="fill:#109494;"/><path d="M23.0807,20.2763c-.42845-.12917-.52825-.69516-.16982-.96308,1.20063-.89743,3.67863-2.48769,6.76444-3.0318,3.08581-.54411,5.95827,.10272,7.39343,.53539,.42845,.12917,.52825,.69516,.16982,.96308-1.20063,.89743-3.67863,2.48769-6.76444,3.0318-3.08581,.54411-5.95827-.10272-7.39343-.53539Z" style="fill:#109494;"/><path d="M22.95355,21.3403c-.35843-.26792-.25863-.83391,.16982-.96308,1.43516-.43267,4.30763-1.0795,7.39343-.53539,3.08581,.54411,5.56381,2.13437,6.76444,3.0318,.35843,.26792,.25863,.83391-.16982,.96308-1.43516,.43267-4.30763,1.0795-7.39343,.53539-3.08581-.54411-5.56381-2.13437-6.76444-3.0318Z" style="fill:#109494;"/><path d="M22.47016,22.29665c-.24518-.37435,.04218-.87208,.48897-.84692,1.49659,.08428,4.41706,.4589,7.13067,2.0256s4.49828,3.90859,5.31956,5.16254c.24518,.37435-.04218,.87208-.48897,.84692-1.49659-.08428-4.41706-.4589-7.13067-2.0256-2.71361-1.56671-4.49828-3.90859-5.31956-5.16254Z" style="fill:#109494;"/><path d="M17.16373,21.66253c.44679-.02516,.73415,.47257,.48897,.84692-.82128,1.25395-2.60594,3.59583-5.31956,5.16254-2.71361,1.56671-5.63408,1.94133-7.13067,2.0256-.44679,.02516-.73415-.47257-.48897-.84692,.82128-1.25395,2.60594-3.59583,5.31956-5.16254,2.71361-1.56671,5.63408-1.94133,7.13067-2.0256Z" style="fill:#109494;"/><path d="M16.9193,20.61921c.42845,.12917,.52825,.69516,.16982,.96308-1.20063,.89743-3.67863,2.48769-6.76444,3.0318-3.08581,.54411-5.95827-.10272-7.39343-.53539-.42845-.12917-.52825-.69516-.16982-.96308,1.20063-.89743,3.67863-2.48769,6.76444-3.0318,3.08581-.54411,5.95827,.10272,7.39343,.53539Z" style="fill:#109494;"/><path d="M17.04645,19.55521c.35843,.26792,.25863,.83391-.16982,.96308-1.43516,.43267-4.30763,1.0795-7.39343,.53539-3.08581-.54411-5.56381-2.13437-6.76444-3.0318-.35843-.26792-.25863-.83391,.16982-.96308,1.43516-.43267,4.30763-1.0795,7.39343-.53539s5.56381,2.13437,6.76444,3.0318Z" style="fill:#109494;"/><path d="M17.52984,18.59886c.24518,.37435-.04218,.87208-.48897,.84692-1.49659-.08428-4.41706-.4589-7.13067-2.0256-2.71361-1.56671-4.49828-3.90859-5.31956-5.16254-.24518-.37435,.04218-.87208,.48897-.84692,1.49659,.08428,4.41706,.4589,7.13067,2.0256,2.71361,1.56671,4.49828,3.90859,5.31956,5.16254Z" style="fill:#109494;"/><path d="M18.31116,17.86552c.10236,.43563-.33791,.80506-.74914,.62861-1.37751-.59106-3.99372-1.94194-6.00784-4.34228s-2.89018-5.21137-3.23306-6.6706c-.10236-.43563,.33791-.80506,.74914-.62861,1.37751,.59106,3.99372,1.94194,6.00784,4.34228s2.89018,5.21137,3.23306,6.6706Z" style="fill:#109494;"/><path d="M19.29619,17.44363c-.05281,.44437-.59287,.64094-.91896,.33447-1.09229-1.02655-3.08869-3.19076-4.16038-6.13521-1.07169-2.94444-.93349-5.88559-.7566-7.37408,.05281-.44437,.59287-.64094,.91896-.33447,1.09229,1.02655,3.08869,3.19076,4.16038,6.13521,1.07169,2.94444,.93349,5.88559,.7566,7.37408Z" style="fill:#109494;"/><rect x="14.19386" y="15.79569" width="12.00694" height="10.33384" transform="translate(40.39467 41.92523) rotate(-180)" style="fill:#109494;"/></g><ellipse cx="20.20994" cy="24.83547" rx="5.85838" ry="5.06524" style="fill:#6453e4;"/><path d="M18.83756,21.18948l-1.14767,.74677c-3.54357,2.30574-2.0296,7.8756,2.19719,7.96264,.05858,.00121,.11783,.00182,.17774,.00182,5.99186,0,4.44113-6.45982,2.12072-11.64711l-2.14945-4.8051c-.02302-.05147,.01464-.10957,.07102-.10957h2.98816s-.99152-2.60384-3.04492-2.60384c-2.05339,0-2.26888,1.94765-1.21279,10.45439Z" style="fill:#3e26b1;"/><circle cx="20.29514" cy="12.01929" r=".54867" style="fill:#f3f3f3;"/><path d="M21.88804,11.53284c.83123,.78107,1.20723,1.80609,1.20723,1.80609h-1.22574l.01851-1.80609Z" style="fill:#fff;"/></g><rect width="40" height="40" style="fill:none;"/></svg>

<svg id="Layer_1" data-name="Layer 1" xmlns="http://www.w3.org/2000/svg" viewBox="0 0 40 40"><defs><style>.cls-1{fill:#ec6700;}.cls-2{fill:#109494;}.cls-3{fill:#6453e4;}.cls-4{fill:#3e26b1;}.cls-5{fill:#f3f3f3;}.cls-6{fill:#fff;}.cls-7{fill:none;}</style></defs><polygon class="cls-1" points="20.523 37.292 21.072 37.292 21.278 29.5 20.318 29.5 20.523 37.292"/><polygon class="cls-1" points="19.336 37.292 19.885 37.292 20.091 29.5 19.131 29.5 19.336 37.292"/><path class="cls-2" d="M20.366,17.384a.549.549,0,0,1-.978,0A16.546,16.546,0,0,1,17.577,10.2a16.546,16.546,0,0,1,1.811-7.188.549.549,0,0,1,.978,0A16.546,16.546,0,0,1,22.177,10.2,16.546,16.546,0,0,1,20.366,17.384Z"/><path class="cls-2" d="M21.392,17.694a.549.549,0,0,1-.919-.334,16.535,16.535,0,0,1,.757-7.374A16.539,16.539,0,0,1,25.39,3.85a.549.549,0,0,1,.919.335,16.537,16.537,0,0,1-.757,7.374A16.534,16.534,0,0,1,21.392,17.694Z"/><path class="cls-2" d="M22.25,18.336a.548.548,0,0,1-.749-.628,16.525,16.525,0,0,1,3.233-6.671A16.545,16.545,0,0,1,30.741,6.7a.549.549,0,0,1,.75.628,16.538,16.538,0,0,1-3.233,6.671A16.555,16.555,0,0,1,22.25,18.336Z"/><path class="cls-2" d="M22.836,19.233a.549.549,0,0,1-.489-.847,16.539,16.539,0,0,1,5.32-5.162A16.532,16.532,0,0,1,34.8,11.2a.548.548,0,0,1,.488.847,16.523,16.523,0,0,1-5.319,5.162A16.535,16.535,0,0,1,22.836,19.233Z"/><path class="cls-2" d="M23.081,20.276a.548.548,0,0,1-.17-.963,16.564,16.564,0,0,1,6.764-3.032,16.538,16.538,0,0,1,7.394.536.549.549,0,0,1,.17.963,16.549,16.549,0,0,1-6.765,3.032A16.533,16.533,0,0,1,23.081,20.276Z"/><path class="cls-2" d="M22.954,21.34a.549.549,0,0,1,.169-.963,16.557,16.557,0,0,1,7.394-.535,16.524,16.524,0,0,1,6.764,3.032.548.548,0,0,1-.17.963,16.551,16.551,0,0,1-7.393.535A16.524,16.524,0,0,1,22.954,21.34Z"/><path class="cls-2" d="M22.47,22.3a.549.549,0,0,1,.489-.847,16.546,16.546,0,0,1,7.131,2.025,16.544,16.544,0,0,1,5.319,5.163.549.549,0,0,1-.489.847,16.532,16.532,0,0,1-7.13-2.026A16.538,16.538,0,0,1,22.47,22.3Z"/><path class="cls-2" d="M17.164,21.663a.548.548,0,0,1,.489.846,16.55,16.55,0,0,1-5.32,5.163A16.546,16.546,0,0,1,5.2,29.7a.549.549,0,0,1-.488-.847,16.534,16.534,0,0,1,5.319-5.163A16.531,16.531,0,0,1,17.164,21.663Z"/><path class="cls-2" d="M16.919,20.619a.548.548,0,0,1,.17.963,16.537,16.537,0,0,1-6.764,3.032,16.556,16.556,0,0,1-7.394-.535.549.549,0,0,1-.17-.963,16.536,16.536,0,0,1,6.765-3.032A16.551,16.551,0,0,1,16.919,20.619Z"/><path class="cls-2" d="M17.046,19.555a.549.549,0,0,1-.169.963,16.54,16.54,0,0,1-7.394.536,16.537,16.537,0,0,1-6.764-3.032.548.548,0,0,1,.17-.963,16.533,16.533,0,0,1,7.393-.536A16.55,16.55,0,0,1,17.046,19.555Z"/><path class="cls-2" d="M17.53,18.6a.549.549,0,0,1-.489.847A16.535,16.535,0,0,1,9.91,17.42a16.543,16.543,0,0,1-5.319-5.162.549.549,0,0,1,.489-.847,16.542,16.542,0,0,1,7.13,2.025A16.539,16.539,0,0,1,17.53,18.6Z"/><path class="cls-2" d="M18.311,17.866a.548.548,0,0,1-.749.628,16.546,16.546,0,0,1-6.008-4.342A16.544,16.544,0,0,1,8.321,7.481a.549.549,0,0,1,.749-.628A16.538,16.538,0,0,1,15.078,11.2,16.538,16.538,0,0,1,18.311,17.866Z"/><path class="cls-2" d="M19.3,17.444a.549.549,0,0,1-.919.334,16.546,16.546,0,0,1-4.16-6.135,16.537,16.537,0,0,1-.757-7.374.549.549,0,0,1,.919-.335A16.551,16.551,0,0,1,18.54,10.07,16.546,16.546,0,0,1,19.3,17.444Z"/><rect class="cls-2" x="14.194" y="15.796" width="12.007" height="10.334" transform="translate(40.395 41.925) rotate(-180)"/><ellipse class="cls-3" cx="20.21" cy="24.835" rx="5.858" ry="5.065"/><path class="cls-4" d="M18.838,21.189l-1.148.747a4.33,4.33,0,0,0,2.2,7.963l.178,0c5.992,0,4.441-6.46,2.121-11.647l-2.15-4.806a.078.078,0,0,1,.071-.109H23.1s-.991-2.6-3.045-2.6S17.781,12.683,18.838,21.189Z"/><circle class="cls-5" cx="20.295" cy="12.019" r="0.549"/><path class="cls-6" d="M21.888,11.533A5.285,5.285,0,0,1,23.1,13.339H21.87Z"/><rect class="cls-7" width="40" height="40"/></svg>
